X:1
T:O the Depth of the Riches
T:C Major              Hezekiah Moors, 1809
T:Transcribed from Province Harmony, 1809.
T:Romans Chapter 11
T:Anthem
%%score [ 1 2 3 ]
L:1/8
Q:1/4=90
M:2/4
K:C
V:1 treble nm="Tr." snm="Tr."
V:2 treble-8 nm="T." snm="T."
V:3 bass nm="B." snm="B."
V:1
 G2 G2 | G2 G G | G2 c B | c2 d2 | c2 c d | e2 e d | c4- | c2 z2 | c2 c2 | c2 c B | c2 c d | %11
w: O the|depth of the|ri- ches both|of the|wis- dom and|know- ledge of|God!||O the|depth of the|ri- ches both|
 e2 f2 | e2 e d | c2 c B | c4- | c2 z2 | z4 | z4 | z4 | z4 | G>A B2 | c2 dc | Bc d2 | c4 | z2 G2 | %25
w: of the|wis- dom and|know- ledge of|God!||||||And * his|ways past *|fin- * ding|out!|Of|
 G2 z B | c G z B | c G z2 | d2 c2 | !fermata!B2 z B | c2 B2 | c G z B | c G z B | c G z B | %34
w: him, and|through him, and|to him|are all|things; to|whom be|glo- ry for-|ev- er and|ev- er, for-|
 c G z B | c G z2 | e4 | (d c2) z | [df]4 | (f e3) |] %40
w: ev- er and|ev- er.|A-|men, *|A-|men. *|
V:2
 G2 G2 | c2 c B | c2 c d | e2 f2 | e2 e d | c2 c B | c4- | c2 z2 | e2 e2 | e2 e d | e2 e f | %11
w: O the|depth of the|ri- ches both|of the|wis- dom and|know- ledge of|God!||O the|depth of the|ri- ches both|
 g2 a2 | g2 g f | e2 e d | c4- | c2 z2 | c2 G2 | E2 E F | G2 A2 | G2 G2 | c2 d2 | e2 fe | dc B2 | %23
w: of the|wis- dom and|know- ledge of|God!||How un-|sear- cha- ble|are his|judg- ments,|And his|ways past *|fin- * ding|
 c4 | z2 c2 | c2 z d | e c z d | e c z2 | B2 c2 | !fermata!d2 z f | e2 d2 | e c z d | e c z d | %33
w: out!|Of|him, and|through him, and|to him|are all|things; to|whom be|glo- ry for-|ev- er and|
 e c z d | e c z d | e c z2 | c4 | (c B2) z | d4 | c4 |] %40
w: ev- er, for-|ev- er and|ev- er.|A-|men, *|A-|men.|
V:3
 C,2 C,2 | C,2 C, G,, | C,2 C, G, | C2 B,2 | C2 G, G, | E,F, G, G, | C,4- | C,2 z2 | C2 C2 | %9
 C2 C G, | C2 C B, | C2 F,2 | G,2 G, G, | G,2 G, G, | C,4- | C,2 z2 | C,2 C,2 | C,2 C, D, | %18
 E,2 D,2 | G,,2 G,,2 | C,2 G,2 | C2 F,2 | G,2 G,2 | C,4 | z2 C,2 | C,2 z G, | C C, z G, | C C, z2 | %28
 G,,2 C,2 | !fermata!G,2 z D | C2 G,2 | C C, z G, | %32
"________________________________________________________________________\nEdited by B. C. Johnston, 2018\n   Grace eighth notes replaced by normal eighth notes in measures 24, 38, and 40." C C, z G, | %33
 C C, z G, | C C, z G, | C C, z2 | C,4 | G,,3 z | G,4 | C,4 |] %40

